X:1
T:Twinkle Twinkle Little Star
C:Traditional
M:4/4
L:1/4
Q:1/4=120
K:G

G G d d | e d c B | A A G - |
d d c c | B B A - | d e c d |
e c d e | f g2 - | G G d d |
e d c B | A A G - |]
w:Twink-le twink-le lit-tle star | How I won-der what you are | Up a-bove the world so high | Like a dia-mond in the sky | Twink-le twink-le lit-tle star | How I won-der what you are
